X: 1
T:Perthshire Hunt: a Reel
M:C
Z: source from Highland Music Trust, chords by Gary Whaley
L:1/8
C: Miss Magdelina Stirling Collection
K:A
A/F/[|"A"TE2 CE A,ECE|A,ECE "E"FB,B,A|"A"TE2 CE A,AcA|"A"c/d/e"E"Bd "A" cAAF |
|"A"TE2 CE A,ECE|A,ECE "E"FB,B,A|"A"TE2 CE A,AcA|"A"c/d/e"E"Bd "A" cAAe |]
[|"A"(c/B/A)eA fAeA|(c/B/A)ec "E"fBBd|"A"(c/B/A)eA fAeA|"E"E>FAB "A"TcAAe |
|"A"(c/B/A)eA fAeA|(c/B/A)ec "E"fBBd|"A"ceAc "B"dfBc  | "E"E>FAB "A"cAA |]
